blockchains/vechain/logo.svg

<svg fill="none" height="250" viewBox="0 0 250 250" width="250" xmlns="http://www.w3.org/2000/svg" xmlns:xlink="http://www.w3.org/1999/xlink"><linearGradient id="a" gradientUnits="userSpaceOnUse" x1="52.0833" x2="197.917" y1="125" y2="125"><stop offset="0" stop-color="#9d4abe"/><stop offset=".03" stop-color="#9055c4"/><stop offset=".15" stop-color="#6b74d6"/><stop offset=".26" stop-color="#4c8fe5"/><stop offset=".39" stop-color="#34a3f0"/><stop offset=".52" stop-color="#22b2f9"/><stop offset=".66" stop-color="#18bafd"/><stop offset=".83" stop-color="#15bdff"/><stop offset="1" stop-color="#28bad5"/></linearGradient><clipPath id="b"><path d="m0 0h250v250h-250z"/></clipPath><clipPath id="c"><path d="m52.0833 52.083h145.833v145.833h-145.833z"/></clipPath><g clip-path="url(#b)"><path d="m125 250c69.036 0 125-55.964 125-125 0-69.0356-55.964-125-125-125-69.0356 0-125 55.9644-125 125 0 69.036 55.9644 125 125 125z" fill="#fff"/><g clip-path="url(#c)"><path d="m114.775 191.353-62.3716-134.5813c-1.0135-2.1474.5104-4.6887 2.7562-4.6887h21.6121c1.1593 0 2.2457.6952 2.7562 1.7689l45.5501 97.6361c4.061 8.759 15.808 8.759 19.869 0l45.405-97.5589c.51-1.0737 1.597-1.7688 2.756-1.7688h2.683c1.597 0 2.611 1.7688 1.889 3.2287l-63.028 135.964c-4.062 8.752-15.816 8.752-19.877 0z" fill="url(#a)"/><g fill="#fff"><path d="m114.775 191.353-35.2472-137.424c-.5104-1.1509-1.6698-1.7688-2.6104-1.7688h-21.6849c-2.3917 0-3.7698 2.5335-2.8292 4.6886z" opacity=".1"/><path d="m125.078 151.557-72.6746-94.7853c-.8677-2.2246.4375-4.457 2.4645-4.6887h21.9767c1.2322.0773 2.1728.9192 2.6103 1.7689z" opacity=".1"/></g></g></g></svg>

<svg width="250" height="250" viewBox="0 0 250 250" fill="none" xmlns="http://www.w3.org/2000/svg">
<g clip-path="url(#clip0_9_927)">
<path d="M125 250C194.036 250 250 194.036 250 125C250 55.9644 194.036 0 125 0C55.9644 0 0 55.9644 0 125C0 194.036 55.9644 250 125 250Z" fill="white"/>
<g clip-path="url(#clip1_9_927)">
<path d="M114.775 191.353L52.4034 56.7717C51.3899 54.6243 52.9138 52.083 55.1596 52.083H76.7717C77.931 52.083 79.0174 52.7782 79.5279 53.8519L125.078 151.488C129.139 160.247 140.886 160.247 144.947 151.488L190.352 53.9291C190.862 52.8554 191.949 52.1603 193.108 52.1603H195.791C197.388 52.1603 198.402 53.9291 197.68 55.389L134.652 191.353C130.59 200.105 118.836 200.105 114.775 191.353Z" fill="url(#paint0_linear_9_927)"/>
<path opacity="0.1" d="M114.775 191.353L79.5278 53.929C79.0174 52.7781 77.858 52.1602 76.9174 52.1602H55.2325C52.8408 52.1602 51.4627 54.6937 52.4033 56.8488L114.775 191.353Z" fill="white"/>
<path opacity="0.1" d="M125.078 151.557L52.4034 56.7717C51.5357 54.5471 52.8409 52.3147 54.8679 52.083H76.8446C78.0768 52.1603 79.0174 53.0022 79.4549 53.8519L125.078 151.557Z" fill="white"/>
</g>
</g>
<defs>
<linearGradient id="paint0_linear_9_927" x1="52.0833" y1="125" x2="197.917" y2="125" gradientUnits="userSpaceOnUse">
<stop stop-color="#9D4ABE"/>
<stop offset="0.03" stop-color="#9055C4"/>
<stop offset="0.15" stop-color="#6B74D6"/>
<stop offset="0.26" stop-color="#4C8FE5"/>
<stop offset="0.39" stop-color="#34A3F0"/>
<stop offset="0.52" stop-color="#22B2F9"/>
<stop offset="0.66" stop-color="#18BAFD"/>
<stop offset="0.83" stop-color="#15BDFF"/>
<stop offset="1" stop-color="#28BAD5"/>
</linearGradient>
<clipPath id="clip0_9_927">
<rect width="250" height="250" fill="white"/>
</clipPath>
<clipPath id="clip1_9_927">
<rect width="145.833" height="145.833" fill="white" transform="translate(52.0833 52.083)"/>
</clipPath>
</defs>
</svg>
